X: 33822
T: Réaltaí Sa Spéir
R: jig
M: 6/8
K: Dmajor
|:F2A Bdf|edf edf|edB AFA|BFE E3|
FAA Bdf|edf edf|edB dBA|FED EAA|A2F GAB:|
|:g2f agf|fed edf|edB dBA|A2F ABd|edf dea|
gfe dBA|BFA BFE|E2F ABd|edg fea|gdB A2B|
fed edf|edB dBA|FED FAA|EG2 F/E/D2:|

